X:1
T:Follow Jesus, 76.76.77.76
T:Follow Jesus, 76.76.77.76
T:Old Melody
T:Public Domain Courtesy of the Cyber Hymnal™
C:Old Melody
Z:Public Domain
Z:Courtesy of the Cyber Hymnal™
%%score ( 1 2 ) 3
L:1/8
Q:1/4=108
M:4/4
K:F
V:1 treble 
V:2 treble 
V:3 bass 
V:1
 F3 [FA] [Ac]2 [Af]2 | [Bd]2 [Bf]2 [Ac]4 | [Ac]3 [Bd] [Ac]2 [FA]2 | [FA]4 [EG]4 | %4
 F3 [FA] [Ac]2 [Af]2 | [Bd]2 [Bf]2 [Ac]4 | [Ac]3 [Bd] [Ac]2 [FA]2 | [EG]4 F4 | %8
 [Fc]2 [Fc]2 [FB]2 [EB]2 | [FA]2 [Fc]2 [EG]4 | [Fc]2 [^Fc]2 [GB]2 [GB]2 | [FA]2 [Fc]2 [EG]4 | %12
 F3 [FA] [Ac]2 [Af]2 | [Bd]2 [Bf]2 [Ac]4 | [Ac]3 [Bd] [Ac]2 [FA]2 | [EG]4 F4 |] %16
V:2
 F3 x5 | x8 | x8 | x8 | F3 x5 | x8 | x8 | x4 F4 | x8 | x8 | x8 | x8 | F3 x5 | x8 | x8 | x4 F4 |] %16
V:3
 [F,A,]3 [F,C] [F,C]2 [F,C]2 | [B,,F]2 [D,F]2 [F,F]4 | [F,C]3 [F,F] [F,C]2 [A,,C]2 | %3
 [C,C]4 [C,C]4 | [F,A,]3 [F,C] [F,C]2 [F,C]2 | [B,,F]2 [D,F]2 [F,F]4 | %6
 [F,C]3 [F,F] [F,C]2 [A,,C]2 | [C,B,]4 [F,A,]4 | [A,C]2 [A,C]2 [G,C]2 [G,C]2 | %9
 [F,C]2 [A,,C]2 [C,C]4 | [A,C]2 [D,D]2 [G,D]2 [E,C]2 | [F,C]2 [A,,C]2 [C,C]4 | %12
 [F,A,]3 [F,C] [F,C]2 [F,C]2 | [B,,F]2 [D,F]2 [F,F]4 | [F,C]3 [F,F] [F,C]2 [A,,C]2 | %15
 [C,B,]4 [F,A,]4 |] %16

